Texture2D tex0: PREVIOUS;
Texture2D tex1 <string uiname="Position 2";>;

SamplerState s0 <bool visible=false;string uiname="Sampler";> {Filter=MIN_MAG_MIP_LINEAR;AddressU=CLAMP;AddressV=CLAMP;};
float2 R:TARGETSIZE;

float4 pMIX(float4 PosWVP:SV_POSITION,float2 x:TEXCOORD0):SV_TARGET{
	float4 c0=tex0.Sample(s0,x);
	float4 c1=tex1.Sample(s0,x);
	float c = (c0.z < c1.z) ? 0 : 1;
    return float4(c.xxx,1);
}


technique10 Mix{pass P1{SetPixelShader(CompileShader(ps_4_0,pMIX()));}}
